X: 1
T: The Trip To Athlone
R: jig
M: 6/8
L: 1/8
K: Dmaj
|:ABA D2d|{e}dcA AGF|ABG ABc|dAB =cde|
ABA D2d|{e}dcA AGF|GFG Ade|1 fdc d2d:|2 fdc d2e||
|:fed edc|Adc Ade|fed efg|AB=c def|
~g3 age|{a}ed=c AGF|~G3 Ade|1 fdc d2e:|2 fdc d2d||


Tune 1301	Setting 14613

